X:1
T:Nisi Dominus - RV 608 - «Cum dederit»
T:Nisi Dominus - RV 608 - «Cum dederit»
T:Antonio Vivaldi (1678 - 1741)
T:ed. Annet den Boer
T:ed. Annet den Boer
T:ed. Annet den Boer
T:ed. Annet den Boer
T:ed. Annet den Boer
T:ed. Annet den Boer
T:ed. Annet den Boer
C:Antonio Vivaldi (1678 - 1741)
Z:ed. Annet den Boer
%%score 1 2 3 4
L:1/8
Q:1/4=50
M:12/8
K:Bb
V:1 treble+8 nm="Sopraan-blokfluit" snm="S. Blf."
V:2 treble nm="Alt-blokfluit" snm="A. Blf."
V:3 treble nm="Tenor-blokfluit" snm="T. Blf."
V:4 bass nm="Viola da gamba" snm="Vla. d. g."
V:1
"^Largo" z12 | z12 | z12 | z12 | z12 | z12 | z12 | z12 | z12 | z12 | z6 !fermata!z3 z z D | %11
 G2 G G2 A B2 B B2 c | d3- d>ec B3- B>cA | G3- G>Bc d>cB A>G^F | G12- | G6 ^F6 | z6 z3 z z D | %17
 G2 G G2 A B2 c d2 B | G6- GB/c/d dBA | G6- GB/c/d dBA | AA/B/c cBA B6 | (A3 G3) F3 z3 | %22
 A2 A d>cB B>AG A3 | d>cB A2 G G3 F3 | z3 D2 =E F3 ^F3 | G3 ^G3 A6- | A6- A3 G3 | %27
 F2 A d2 D (F3 T=E3) | D12 | z6 z3 z z D | G2 G G2 A B2 c d2 B | G6- G>dc B>AG | ^F3 z3 A2 A d>cB | %33
 B>AG A3 d>cB A2 A | G3 ^F3 z3 A2 A | B3 =B3 c3 ^c3 | d12- | d3 c3 B>dc BAG | B6 G3 z z2 | %39
 z3 A2 A B3 =B3 | c3 ^c3 d6- | d6 d3 c3 | B>dc BAG A6 | G12 | z12 | z12 |] %46
V:2
 z12 | z B/c/d dcB z2 z4 | z B/c/d dcB z2 z4 | z A/B/c cBA z2 z4 | z A/B/c cBA z2 z4 | %5
 G2 G G2 A B2 B =B2 B | c2 c ^c2 c d6- | d12- | d6- dB/c/d e2 e | dB/c/d e2 e dB/c/d e2 e | %10
 dB/c/d e2 e !fermata!d3 z3 | z12 | z12 | z12 |!mp! G2 G G2 A B2 B =B2 B | c2 c ^c2 c d6- | (d12 | %17
 d3) z3 z6 | z B/c/d dcB z6 | z B/c/d dcB z6 | AA/B/c cBA G6 | A6 A f/g/a agf | %22
 f2 A B2 B B2 B A2 A | B2 B A2 B B2 B A f/g/a | agf z z8 | z6 A2 A A2 A | B2 B =B2 B c2 c ^c2 c | %27
 d2 d d2 d d2 d ^c2 c | df/g/a agf z2 z4 | df/g/a agf d2 z z3 | z12 | z B/c/d dcB z6 | %32
 z ^f/g/a agf f2 ^F G2 G | B2 B A2 A B2 B A2 B | B2 B A^f/g/a agf A2 A | B2 B =B2 B c2 c ^c2 =c | %36
 d3 d2 d e2 e =e2 e | f2 f ^f2 f g2 B B2 B | A2 A A2 A BB/c/d dcB | A2 A A2 A B2 B =B2 B | %40
 c3 ^c3 d6 | e2 e =e2 e f2 f ^f2 f | B2 B B2 B A2 A A2 A | BB/c/d e2 e dB/c/d e2 e | %44
 dB/c/d e2 e dB/c/d e2 e | !fermata!d12 |] %46
V:3
 G2 G G2 G G2 G G2 G | GG/A/B BAG G2 G G2 G | GG/A/B BAG D2 D D2 D | D^F/G/A AGF D2 D D2 D | %4
 D^F/G/A AGF G2 G G2 G | G2 G G2 G G2 G G2 G | G2 G G2 G D2 D D2 D | D2 D D2 D D2 D D2 D | %8
 G6- GG/A/B c2 c | BG/A/B c2 c BG/A/B c2 c | BG/A/B c2 c !fermata!B3 z3 | G2 G G2 G G2 G G2 G | %12
 G2 G G2 G G2 G G2 G | G2 G G2 G G2 G G2 G | G2 G G2 G G2 G G2 G | G2 G G2 G D2 D D2 D | %16
 D2 D D2 D D2 D D2 D | G2 G G2 G G2 G G2 G | GG/A/B BAG G2 G G2 G | GG/A/B BAG G2 G G2 G | %20
 ^FF/G/A AGF =E6 | =E6 D d/=e/f fed | d2 F G2 G G2 G =F2 F | G2 G F2 G G2 G D d/=e/f | %24
 f=ed D2 D D2 D D2 D | D2 D D2 D A2 A A2 A | A2 A A2 A A2 A A2 A | A2 A A2 A A2 A A2 A | %28
 Dd/=e/f fed D2 D D2 D | D2 D D2 D d2 c B2 A | G2 G G2 G G2 G G2 G | GG/A/B BAG G2 G G2 G | %32
 Dd/=e/^f fed d2 ^F G2 G | G2 G ^F2 F G2 G F2 G | B2 B ^Fd/=e/^f fed D2 D | D2 D D2 D D2 D D2 D | %36
 D2 D D2 D D2 D D2 D | d3 c3 B2 B G2 G | G2 G ^F2 F GG/A/B BAG | ^F2 D D2 D D2 D D2 D | %40
 D2 D D2 D D2 D D2 D | D2 D D2 D D2 D D2 D | G2 G G2 G G2 G ^F2 F | GG/A/B c2 c BG/A/B c2 c | %44
 BG/A/B c2 c BG/A/B c2 c | !fermata!B12 |] %46
V:4
!p! G,,2 G,, G,,2 G,, G,,2 G,, G,,2 G,, | G,,2 G,, G,,2 G,, G,,2 G,, G,,2 G,, | %2
 G,,2 G,, G,,2 G,, G,,2 G,, G,,2 G,, | D,2 D, D,2 D, D,2 D, D,2 D, | %4
 D,2 D, D,2 D, G,,2 G,, G,,2 G,, |!p! G,,2 G,, G,,2 G,, G,,2 G,, G,,2 G,, | %6
 G,,2 G,, G,,2 G,, D,2 D, D,2 D, | E,2 E, =E,2 E, F,2 F, ^F,2 F, | %8
 G,,2 G,, G,,2 G,, G,,2 G,, G,,2 G,, | G,,2 G,, G,,2 G,, G,,2 G,, G,,2 G,, | %10
 G,,2 G,, G,,2 G,, !fermata!G,,3 z3 | G,,2 G,, G,,2 G,, G,,2 G,, G,,2 G,, | %12
 G,,2 G,, G,,2 G,, G,,2 G,, G,,2 G,, | G,,2 G,, G,,2 G,, G,,2 G,, G,,2 G,, | %14
 G,,2 G,, G,,2 G,, G,,2 G,, G,,2 G,, | G,,2 G,, G,,2 G,, D,2 D, D,2 D, | %16
 E,2 E, =E,2 E, F,2 F, ^F,2 F, | G,,2 G,, G,,2 G,, G,,2 G,, G,,2 G,, | %18
 G,,2 G,, G,,2 G,, G,,2 G,, G,,2 G,, | G,,2 G,, G,,2 G,, G,,2 G,, G,,2 G,, | %20
 D,2 D, D,2 D, ^C,2 C, C,2 C, | ^C,2 C, C,2 C, D,2 D, D,2 D, | D,2 D, D,2 D, D,2 D, D,2 D, | %23
 D,2 D, D,2 D, D,2 D, D,2 D, | D,2 D, D,2 D, D,2 D, D,2 D, | D,2 D, D,2 D, A,,2 A,, A,,2 A,, | %26
 A,,2 A,, A,,2 A,, A,,2 A,, A,,2 A,, | A,,2 A,, A,,2 A,, A,,2 A,, A,,2 A,, | %28
 D,2 D, D,2 D, D,2 D, D,2 D, | D,2 D, D,2 D, D,2 C, B,,2 A,, | %30
 G,,2 G,, G,,2 G,, G,,2 G,, G,,2 G,, | G,,2 G,, G,,2 G,, G,,2 G,, G,,2 G,, | %32
 D,2 D, D,2 D, D,2 D, D,2 D, | D,2 D, D,2 D, D,2 D, D,2 D, | D,2 D, D,2 D, D,2 D, D,2 D, | %35
 D,2 D, D,2 D, D,2 D, D,2 D, | D,2 D, D,2 D, D,2 D, D,2 D, | D,2 D, D,2 D, G,,2 G,, G,,2 G,, | %38
 D,2 D, D,2 D, G,,2 G,, G,,2 G,, | D,2 D, D,2 D, D,2 D, D,2 D, | D,2 D, D,2 D, D,2 D, D,2 D, | %41
 D,2 D, D,2 D, D,2 D, D,2 D, | G,,2 G,, G,,2 G,, D,2 D, D,2 D, | %43
 G,,2 G,, G,,2 G,, G,,2 G,, G,,2 G,, | G,,2 G,, G,,2 G,, G,,2 G,, G,,2 G,, | !fermata!G,,12 |] %46

